!!!OTL: 1604. Der Handwerksgesell auf Wanderung.
!!!ARE: Europa, Mitteleuropa, Deutschland, Hessen, Lahn - Gegend
!!!SCT: E1604
!!!TXL: @@DE
!!!YEM: Copyright 1995, estate of Helmut Schaffrath.
**kern	**text
*ICvox	*
*M4/4	*
*met(c)	*
*k[f#]	*
*G:	*
!LO:TX:a:t=Knotig.	!
!LO:TX:a:t=Aus der Lahngegend.	!
{4d	Friſch
=1	=1
4g	auf,
8b/	ihr
8a	Ge-
4g	-ſel-
8d	-len,
8d	ſeid
=2	=2
4g	wohl
8bL	da-
8aJ	.
4g	-ran,
4r}	.
=3	=3
{4b	jetʒ-
4b	-und
4b	geht
(8bq	.
4dd)	das
=4	=4
4cc	Frühjahr
4a	.
4b}	an;
{4dd	jetʒt
=5	=5
4cc	kommt
4a	die
4b	Ʒeit,
8dd	die
8dd	uns
=6	=6
4cc	all
4a	er-
4b/	-freut.
4r}	.
=7	=7
{4.b	Auf
8cc	die
4dd	Reiſe
4dd	woll'n_wir
=8	=8
4.ee	uns
8dd	be-
8ddL	-ge-
8ccJ	.
8ccL	-ben,
8bJ}	.
=9	=9
{4.a	das
8b	iſt
4cc	un-
8ccL	-ſer
8eeJ	.
=10	=10
4.dd	ſchön-
8cc	-ſtes
8ccL	Le-
8bJ	.
4b}	-ben;
=11	=11
{4b	bin
4b	ge-
4a	-weſen
4a	über
=12	=12
4b	Berg
4b	und
4.a}	Thal,
{8a	hab
=13	=13
4.b	aus-
8cc	-ge-
(8dd	-ſtan-
8ee	-den
8dd)	ei-
8dd	-ne
=14	=14
8ddL	gro-
8ccJ	.
4cc	-ße
4b:}	Oual.
==	==
!!!AGN: Staende -, Handwerker -, Gesellen - Lied, Wanderschaft
!!!ONB: ESAC (Essen Associative Code) Database: ERK3
!!!AMT: simple quadruple
!!!AIN: vox
!!!EED: Helmut Schaffrath
!!!EEV: 1.0
!!!GTL: Staendelieder (Berufslieder). 8. Handwerkerlieder.
!!!URL-scan: https://rosdok.uni-rostock.de/mcrviewer/recordIdentifier/rosdok_ppn745177999/iview2/phys_0430.iview2?x=-449.8344612962892&y=1356.489853388397&scale=0.47549036216460333&rotation=0&layout=singlePageLayout
!!!ENC: Anna Maria Matuszewska
!!!EEV: 2025/08/01
*-	*-
